X:5551
T:Friggin' Reel
R:Reel
O:New Zealand
M:C
I:speed 450
C:Mark Fitzsimons
A:Auckland
K:E Phryg
|:EBAF EcBF|EDCD E2E2|EcBF EBAF|EDCA, B,2 B,2|
EBAF EcBF|EDCD E2E2|EcBF EBAF|EDCB, A,2 A,2||
|:B,DFB, DFB,D|FDEF E2E2|B,DFB, DFB,D|EB,DF E2E2|
B,DFA, DFG,D|FAGF G2G2|BEEA DDGC| CFB,D E2E2||
W:
W:
W:Copyright Mark Fitzsimons February 1998
W:markf@ihug.co.nz
